X:1
T:Title
%%score { ( 1 3 ) | ( 2 4 ) }
L:1/8
Q:1/4=87
M:6/8
K:G
V:1 treble nm="Grand Piano"
V:3 treble 
V:2 treble 
V:4 treble 
V:1
 B2 A G2 G | [Fc]2 [GB] [FA]3 | [FA]2 [FA] [FA]2 [FA] | [FA][B,G][FA] B3 | B2 A G2 G | %5
w: F.~E.~Belden * * *|||||
 [Fc]2 [GB] [FA]3 | [Fd]2 [DAc] [DGB]2 [CEA] | [B,DG]2 [CDF] [B,DG]3 | [Gd]3 [GB]3 | .[Ee]3 [Ac]3 | %10
w: |||||
 [Fc]3 [FA]3 | .d3 B3 | B2 A G2 G | [Fc]2 [GB] [FA]3 | [Fd]2 [DAc] [DGB]2 [CEA] | %15
w: |||||
 [B,DG]2 [CDF] [B,DG]3 |] %16
w: |
V:2
 [G,DG]2 [G,CG][K:bass] [G,B,]2 [G,B,] | [D,A,]2 [D,D] [D,D]3 | [D,D]2 [D,D] [D,D]2 [D,D] | %3
 .[D,D]2 [D,D][K:treble] [G,DG]3 | [G,DG]2 [G,CG] [G,B,]2 [G,B,] | [D,A,]2 [D,D] [D,D]3 | %6
 [D,D]2 F, G,2 C, | D,2 D, G,,3 | [G,B,]2 G, G,2 G, | E,2 E, A,2 A, | [D,D]2 [D,D] [D,D]2 [D,D] | %11
 z3[K:treble] G3 | [G,DG]2 [G,CG] [G,B,]2[K:bass] [G,B,] | [D,A,]2 [D,D] [D,D]3 | %14
 [D,D]2 F, G,2 C, | D,2 D, G,,3 |] %16
V:3
 x6 | x6 | x6 | x6 | x6 | x6 | x6 | x6 | z2 B, D2 D | ^G2- [EGd] E2 E | x6 | F2- [Fc] z2 D | x6 | %13
 x6 | x6 | x6 |] %16
V:4
 x3[K:bass] x3 | x6 | x6 | x3[K:treble] x3 | x6 | x6 | x6 | x6 | x6 | x6 | x6 | %11
 [D,A,]2 [D,D][K:treble] [G,D]2 G, | x5[K:bass] x | x6 | x6 | x6 |] %16

